!!!OTL: KIMMT A VOGERL GEFLOGEN
!!!ARE: Europa, Mitteleuropa, Nieder - Oesterreich
!!!SCT: E1051
!!!YEM: Copyright 1995, estate of Helmut Schaffrath.
**kern
*ICvox
*Ivox
*M3/4
*k[f#]
*G:
{8b
8cc
=1
4dd
4b
4b
=2
4b
4a}
{8a
8b
=3
4cc
4a
8a
8a
=4
4b
4r}
{8b
8cc
=5
4dd
4b
4b
=6
4b
4a}
{8a
8b
=7
4cc
4f#
4f#
=8
2g}
==
!!!AGN: Tanz - Lied
!!!ONB: ESAC (Essen Associative Code) Database: ERK3
!!!AMT: simple triple
!!!AIN: vox
!!!EED: Helmut Schaffrath
!!!EEV: 1.0
*-
